src/assets/svg/icons/fa/nuevos/classic/duotone/radar classic duotone.svg

<svg xmlns="http://www.w3.org/2000/svg" viewBox="0 0 512 512"><!--! Font Awesome Pro 6.4.0 by @fontawesome - https://fontawesome.com License - https://fontawesome.com/license (Commercial License) Copyright 2023 Fonticons, Inc. --><defs><style>.fa-secondary{opacity:.4}</style></defs><path class="fa-primary" d="M497 49c9.4-9.4 9.4-24.6 0-33.9s-24.6-9.4-33.9 0l-182 182c-7.7-3.3-16.1-5.1-25-5.1c-35.3 0-64 28.7-64 64s28.7 64 64 64s64-28.7 64-64c0-8.9-1.8-17.3-5.1-25L497 49z"/><path class="fa-secondary" d="M350.9 127.2l-46.1 46.1c-14.3-8.4-31-13.3-48.8-13.3c-53 0-96 43-96 96s43 96 96 96s96-43 96-96h64c0 73.5-49.6 135.5-117.2 154.2C290.8 394.7 274.7 384 256 384s-34.8 10.7-42.8 26.2c-51.7-14.3-92.8-53.9-109.4-104.6c14.4-8.3 24.1-23.8 24.1-41.7c0-19.4-11.5-36.1-28-43.7C116.2 149.1 179.9 96 256 96c35.5 0 68.3 11.6 94.9 31.2zm22.8-22.8C341.2 79 300.4 64 256 64C163.1 64 85.7 129.9 67.9 217.6C47.2 222.9 32 241.7 32 264c0 23.8 17.3 43.6 40.1 47.4c19.3 64.3 71.5 114.4 137 130.9C213.8 463.8 233 480 256 480s42.2-16.2 46.9-37.8C386.3 421.3 448 345.9 448 256h64c0 141.4-114.6 256-256 256S0 397.4 0 256S114.6 0 256 0c62.1 0 118.9 22.1 163.3 58.8l-45.5 45.5z"/></svg>

<svg xmlns="http://www.w3.org/2000/svg" viewBox="0 0 512 512"><defs><style>.fa-secondary{opacity:.4}</style></defs><path class="fa-primary" d="M314.9 231C318.2 238.7 320 247.1 320 256C320 291.3 291.3 320 256 320C220.7 320 192 291.3 192 256C192 220.7 220.7 192 256 192C264.9 192 273.3 193.8 280.1 197.1L463 15.03C472.4 5.657 487.6 5.657 496.1 15.03C506.3 24.4 506.3 39.6 496.1 48.97L314.9 231z"/><path class="fa-secondary" d="M350.9 127.2L304.8 173.3C290.5 164.8 273.8 160 256 160C202.1 160 160 202.1 160 256C160 309 202.1 352 256 352C309 352 352 309 352 256H416C416 329.5 366.4 391.5 298.8 410.2C290.8 394.7 274.7 384 256 384C237.3 384 221.2 394.7 213.2 410.2C161.6 395.9 120.4 356.4 103.9 305.7C118.3 297.4 128 281.8 128 264C128 244.6 116.5 227.9 99.99 220.3C116.2 149.1 179.9 96 256 96C291.5 96 324.3 107.6 350.9 127.2V127.2zM373.7 104.3C341.2 79.05 300.4 64 256 64C163.1 64 85.66 129.9 67.85 217.6C47.22 222.9 32 241.7 32 264C32 287.8 49.35 307.6 72.1 311.4C91.43 375.7 143.6 425.8 209.1 442.2C213.8 463.8 233 480 256 480C278.1 480 298.2 463.8 302.9 442.2C386.3 421.3 448 345.9 448 256H512C512 397.4 397.4 512 256 512C114.6 512 0 397.4 0 256C0 114.6 114.6 0 256 0C318.1 0 374.9 22.08 419.3 58.8L373.7 104.3z"/></svg>
